source/img/icon-insta-mobile.svg

<svg enable-background="new 0 0 16 16" viewBox="0 0 16 16" xmlns="http://www.w3.org/2000/svg"><g fill="#231f20"><path d="m11.8 1c1.8 0 3.2 1.4 3.2 3.2v7.7c0 1.7-1.4 3.1-3.1 3.1h-7.7c-1.8 0-3.2-1.4-3.2-3.2v-7.6c0-1.8 1.4-3.2 3.2-3.2zm0-1h-7.6c-2.3 0-4.2 1.9-4.2 4.2v7.7c0 2.2 1.9 4.1 4.2 4.1h7.7c2.3 0 4.2-1.9 4.2-4.2v-7.6c-.1-2.3-2-4.2-4.3-4.2z"/><path d="m8 4.9c1.7 0 3.1 1.4 3.1 3.1s-1.4 3.1-3.1 3.1-3.1-1.4-3.1-3.1 1.4-3.1 3.1-3.1m0-1c-2.3 0-4.1 1.8-4.1 4.1s1.8 4.1 4.1 4.1 4.1-1.8 4.1-4.1-1.8-4.1-4.1-4.1z"/><circle cx="12.3" cy="3.7" r=".9"/></g></svg>

<svg viewBox="0 0 16 16" xmlns="http://www.w3.org/2000/svg"><g fill="#231f20"><path d="M11.8 1C13.6 1 15 2.4 15 4.2v7.7c0 1.7-1.4 3.1-3.1 3.1H4.2C2.4 15 1 13.6 1 11.8V4.2C1 2.4 2.4 1 4.2 1zm0-1H4.2C1.9 0 0 1.9 0 4.2v7.7C0 14.1 1.9 16 4.2 16h7.7c2.3 0 4.2-1.9 4.2-4.2V4.2C16 1.9 14.1 0 11.8 0z"/><path d="M8 4.9c1.7 0 3.1 1.4 3.1 3.1S9.7 11.1 8 11.1 4.9 9.7 4.9 8 6.3 4.9 8 4.9m0-1C5.7 3.9 3.9 5.7 3.9 8s1.8 4.1 4.1 4.1 4.1-1.8 4.1-4.1S10.3 3.9 8 3.9z"/><circle cx="12.3" cy="3.7" r=".9"/></g></svg>
